X:321
T:Tom Ward's downfall
R:Reel
O:Ireland
P:APB Johnny Wilmot, more or less
D:Johnny Wilmot: Another side of Cape Breton
B:Music from Ireland Vol. 3
S:Johnny Wilmot: Another side of Cape Breton
Z:Transcription, chords:Mike Long
M:C|
L:1/8
K:G
dc|:\
"G"BG{A}GF GEDG|"C"EDB,E AEGE|"G"DEGA BABd|"D"ed~d2 Bdgd|
"G"BG{A}GF GEDG|"C"EDB,E AE~E2|\
"G"DEGA BABd|[1"D"(3(efg) dc "G"BGGA:|[2 "D"{ga}gedc "G"BGGB|]
"G"dg{a}gf {ga}gfed|"D"ea{b}ag (3(aba) ga|\
(3(bag) (3(agf) gbaf|"D"gedc "G"BG~G2|
"G"(3(gag) fa {a}gfed|"D"ea{b}ag (3(aba) ga|\
(3(bag) (3(agf) gbaf|"D"{a}gedB "G"{d}BAG"D.C."A|]
